!!!!SEGMENT: pl-cz--ii-121--001-006_klakowski--missa-in-dis-sanctus.krn
!!!cenid: 18xx:883
!!!COM: Klakowski
!!!COM-rismID: pe30098487
!!!CDT: ~1800-~1899
!!!CNT:
!!!OPR: Missa in Dis
!!!OTL: Sanctus
!!!OMV: 006
!!!PDT:
!!!AGN: Sacred; Mass
!!!YEC: Copyright 2022 Narodowy Instytut Fryderyka Chopina (https://polishscores.org)
!!!YEM: License CC-BY-4.0 (https://creativecommons.org/licenses/by/4.0)
!!!SMS-siglum: PL-CZ
!!!SMS-shelfmark: II-121
!!!SMS-shelfwork: 001-006 M
!!!SMS-variant:
!!!SMS-altvar:
!!!NIFC-rismSourceID: 300000590
!!!NIFC-rismChildID: 300000590
!!!NIFC-islandoraID: pl-cz:32114
!!!URL-pdf-islandora: https://repozytorium.nifc.pl/islandora/object/pl-cz%3A32114/datastream/PDF/view
!!!URL-scan: https://polish.musicsources.pl/pl/lokalizacje/galeria/rekopisy/6753/1 @EN{Scan on Polish Music Sources Website} @PL{Skany w portalu Dziedzictwo Muzyki Polskiej w otwartym dostępie}
!!!IIIF:
!!!ONB-nifc: UWAGA: części Mszy: Kyrie, Gloria, Credo, Et incarnatus, Et resurrexit, Sanctus, Benedictus,
!!!OMD: Adagio maestoso
!!!AIN: 1 alto 1 bass 2 clarb 2 cor 1 organ 1 soprn 1 tenor 1 viola 2 violn
!!!key: E-
**kern	**fba	**dynam	**kern	**dynam	**kern	**dynam	**kern	**dynam	**kern	**text	**kern	**text	**kern	**text	**kern	**text	**kern	**dynam	**kern	**dynam	**kern	**dynam	**kern	**dynam
*part12	*	*	*part11	*	*part10	*	*part9	*	*part8	*	*part7	*	*part6	*	*part5	*	*part4	*	*part3	*	*part2	*	*part1	*
*staff12	*	*	*staff11	*	*staff10	*	*staff9	*	*staff8	*	*staff7	*	*staff6	*	*staff5	*	*staff4	*	*staff3	*	*staff2	*	*staff1	*
*I"Organo,	*	*	*I"Alto Viola	*	*I"Violino Secondo	*	*I"Violino Primo.	*	*I"Basso	*	*I"Tenore	*	*I"Alto	*	*I"Canto	*	*I"Corno Secundo in DiS.	*	*I"Corno Primo in D.S	*	*I"Clarinetto Secundo	*	*I"Clarinetto Primo in B,	*
*I'org (=bc)	*	*	*I'vla	*	*I'vl 2	*	*I'vl 1	*	*I'B	*	*I'T	*	*I'A	*	*I'S	*	*I'cor 2	*	*I'cor 1	*	*I'cl 2	*	*I'cl 1	*
*Iorgan	*	*	*Iviola	*	*Ivioln	*	*Ivioln	*	*Ibass	*	*Itenor	*	*Ialto	*	*Isoprn	*	*Icor	*	*Icor	*	*Iclarb	*	*Iclarb	*
*ICklav	*	*	*ICstr	*	*ICstr	*	*ICstr	*	*ICvox	*	*ICvox	*	*ICvox	*	*ICvox	*	*ICbras	*	*ICbras	*	*ICww	*	*ICww	*
*clefF4	*	*	*clefC3	*	*clefG2	*	*clefG2	*	*clefF4	*	*clefC4	*	*clefC3	*	*clefC1	*	*clefG2	*	*clefG2	*	*clefG2	*	*clefG2	*
*	*	*	*	*	*	*	*	*	*	*	*	*	*	*	*	*	*ITrd5c9	*	*ITrd5c9	*	*ITrd1c2	*	*ITrd1c2	*
*	*	*	*ok[a-e-a-]	*	*	*	*	*	*ok[b-e-b-]	*	*ok[g-e-a-]	*	*	*	*ok[b-a-e-]	*	*	*	*	*	*	*	*	*
*k[b-e-a-]	*	*	*k[b-e-a-]	*	*k[b-e-a-]	*	*k[b-e-a-]	*	*k[b-e-a-]	*	*k[b-e-a-]	*	*k[b-e-a-]	*	*k[b-e-a-]	*	*k[b-e-a-]	*	*k[b-e-a-]	*	*k[b-e-a-]	*	*k[b-e-a-]	*
*E-:	*	*	*E-:	*	*E-:	*	*E-:	*	*E-:	*	*E-:	*	*E-:	*	*E-:	*	*	*	*	*	*E-:	*	*E-:	*
*M4/4	*	*	*M4/4	*	*M4/4	*	*M4/4	*	*M4/4	*	*M4/4	*	*M4/4	*	*M4/4	*	*M4/4	*	*M4/4	*	*M4/4	*	*M4/4	*
*met(c)	*	*	*met(c)	*	*met(c)	*	*met(c)	*	*met(c)	*	*met(c)	*	*met(c)	*	*met(c)	*	*met(c)	*	*met(c)	*	*met(c)	*	*met(c)	*
*all\right	*	*	*all\right	*	*all\right	*	*all\right	*	*all\right	*	*all\right	*	*all\right	*	*all\right	*	*all\right	*	*all\right	*	*all\right	*	*all\right	*
=1	=1	=1	=1	=1	=1	=1	=1	=1	=1	=1	=1	=1	=1	=1	=1	=1	=1	=1	=1	=1	=1	=1	=1	=1
!	!	!	!	!	!LO:TX:t=P:problem=brak klucza, znaków, metrum	!	!LO:TX:a:t=Adagio Maestoso	!	!	!	!LO:TX:a:t=ada	!	!	!	!LO:TX:a:t=adagio	!	!LO:TX:a:t=ada. Maie	!	!LO:TX:a:t=ada Maies	!	!LO:TX:a:t=adagio Maiestozo	!	!LO:TX:t=P:problem=brak klucza, znaków, metrum	!
!LO:TX:a:i:t=adagio Maestoso	!	!	!LO:TX:a:t=adagio Maiestoso	!	!LO:TX:a:t=ada Maesto	!LO:DY:b:rj	!	!LO:DY:a:t=f.	!LO:TX:a:t=Adagio	!	!LO:TX:a:t=Maů	!	!LO:TX:a:t=ada	!	!	!	!	!	!	!	!	!	!LO:TX:a:t=ada	!LO:DY:b:rj
4E-\	.	.	4e-\	.	4G/ 4e-	f	4G/ 4e-	f	4E-\	Sanc-	4g\	Sanc-	4b-\	Sanc-	4ee-\	Sanc-	4E-/	.	4e-\	.	4b-\	.	4ee-\	f
*2\right	*	*	*	*	*	*	*	*	*	*	*	*	*	*	*	*	*clefF4	*	*2\right	*	*2\right	*	*2\right	*
*	*	*	*	*	*	*	*	*	*	*	*	*	*	*	*	*	*ITrd-2c-3	*	*	*	*	*	*	*
!	!	!	!	!	!	!LO:DY:a	!	!LO:HP:a	!	!	!	!	!	!	!	!	!	!	!	!	!	!LO:HP:a	!	!
2.E-\	.	.	2.E-/	.	2.G/ 2.e-	>]	2.G/ 2.e-	>]	4E-\	-tus	4g\	-t(us)	4b-\	-tus	4ee-\	-tus	2.EEE-/	.	2.e-\	.	2.b-\	>]	2.ee-\	.
.	.	.	.	.	.	.	.	.	2r	.	2r	.	2r	.	2r	.	.	.	.	.	.	.	.	.
=2	=2	=2	=2	=2	=2	=2	=2	=2	=2	=2	=2	=2	=2	=2	=2	=2	=2	=2	=2	=2	=2	=2	=2	=2
!LO:TX:b:t=pedale	!	!	!	!	!	!	!	!	!	!	!	!	!	!	!	!	!	!	!	!	!	!	!	!
!LO:TX:a:i:t=Solo	!	!	!	!	!	!	!	!	!	!	!	!	!	!	!	!	!	!	!	!	!	!	!	!
!	!	!	!	!	!	!	!	!LO:DY:b:t=p.	!	!	!	!	!	!	!	!	!	!	!	!	!	!	!LO:TX:a:t=2	!
8E-\	.	.	2E-/	.	16r	.	16r	p	0r	.	0r	.	0r	.	0r	.	0r	.	0r	.	0r	.	0r	.
.	.	.	.	.	16g|/LL	.	(16b-|/LL	.	.	.	.	.	.	.	.	.	.	.	.	.	.	.	.	.
!	!	!	!	!	!	!LO:DY:b	!	!	!	!	!	!	!	!	!	!	!	!	!	!	!	!	!	!
8r	.	.	.	.	16g|/	p	16b-|/	.	.	.	.	.	.	.	.	.	.	.	.	.	.	.	.	.
.	.	.	.	.	16g|/JJ	.	16b-|/JJ)	.	.	.	.	.	.	.	.	.	.	.	.	.	.	.	.	.
!	!	!	!	!	!	!LO:HP:b	!	!LO:HP:a	!	!	!	!	!	!	!	!	!	!	!	!	!	!	!	!
4r	.	.	.	.	8.g/L	>	(8.b-/L	>	.	.	.	.	.	.	.	.	.	.	.	.	.	.	.	.
.	.	.	.	.	16e-/Jk	.	16g/Jk)	.	.	.	.	.	.	.	.	.	.	.	.	.	.	.	.	.
!	!	!	!	!LO:DY:b	!	!	!	!	!	!	!	!	!	!	!	!	!	!	!	!	!	!	!	!
8E-\	.	.	2E-/	p	16r	]	16r	]	.	.	.	.	.	.	.	.	.	.	.	.	.	.	.	.
.	.	.	.	.	16g/LL	.	(16b-|/LL	.	.	.	.	.	.	.	.	.	.	.	.	.	.	.	.	.
8r	.	.	.	.	16g/	.	16b-|/	.	.	.	.	.	.	.	.	.	.	.	.	.	.	.	.	.
.	.	.	.	.	16g/JJ	.	16b-|/JJ)	.	.	.	.	.	.	.	.	.	.	.	.	.	.	.	.	.
!	!	!	!	!	!	!LO:HP:b	!	!LO:HP:a	!	!	!	!	!	!	!	!	!	!	!	!	!	!	!	!
4r	.	.	.	.	8.g/L	>	(8.ee-/L	>	.	.	.	.	.	.	.	.	.	.	.	.	.	.	.	.
.	.	.	.	.	16e-/Jk	]]	16g/Jk)	]]	.	.	.	.	.	.	.	.	.	.	.	.	.	.	.	.
=3	=3	=3	=3	=3	=3	=3	=3	=3	=3	=3	=3	=3	=3	=3	=3	=3	=3	=3	=3	=3	=3	=3	=3	=3
8BB-/	.	.	1r	.	16r	.	16r	.	.	.	.	.	.	.	.	.	.	.	.	.	.	.	.	.
.	.	.	.	.	16d|/LL	.	16f|/LL	.	.	.	.	.	.	.	.	.	.	.	.	.	.	.	.	.
8r	.	.	.	.	(16e-/	.	(16g/	.	.	.	.	.	.	.	.	.	.	.	.	.	.	.	.	.
.	.	.	.	.	16d/JJ)	.	16f/JJ)	.	.	.	.	.	.	.	.	.	.	.	.	.	.	.	.	.
8BB-/	.	.	.	.	16r	.	16r	.	.	.	.	.	.	.	.	.	.	.	.	.	.	.	.	.
.	.	.	.	.	16d|/LL	.	16f|/LL	.	.	.	.	.	.	.	.	.	.	.	.	.	.	.	.	.
8r	.	.	.	.	(16e-/	.	(16g/	.	.	.	.	.	.	.	.	.	.	.	.	.	.	.	.	.
.	.	.	.	.	16d/JJ)	.	16f/JJ)	.	.	.	.	.	.	.	.	.	.	.	.	.	.	.	.	.
8BB-/	.	.	.	.	16r	.	16r	.	.	.	.	.	.	.	.	.	.	.	.	.	.	.	.	.
.	.	.	.	.	(16d/LL	.	16f'/LL	.	.	.	.	.	.	.	.	.	.	.	.	.	.	.	.	.
8r	.	.	.	.	16f/	.	(16a-/	.	.	.	.	.	.	.	.	.	.	.	.	.	.	.	.	.
.	.	.	.	.	16a-/JJ)	.	16cc/JJ)	.	.	.	.	.	.	.	.	.	.	.	.	.	.	.	.	.
8r	.	.	.	.	16g/LL	.	16b-'/LL	.	.	.	.	.	.	.	.	.	.	.	.	.	.	.	.	.
.	.	.	.	.	16g/	.	16b-'/	.	.	.	.	.	.	.	.	.	.	.	.	.	.	.	.	.
8BB-/	7 5	.	.	.	16A-/	.	16d'/	.	.	.	.	.	.	.	.	.	.	.	.	.	.	.	.	.
.	.	.	.	.	16A-/JJ	.	16d'/JJ	.	.	.	.	.	.	.	.	.	.	.	.	.	.	.	.	.
=4	=4	=4	=4	=4	=4	=4	=4	=4	=4	=4	=4	=4	=4	=4	=4	=4	=4	=4	=4	=4	=4	=4	=4	=4
*	*	*	*	*	*	*	*	*	*	*	*	*	*	*	*	*	*clefG2	*	*	*	*	*	*	*
*	*	*	*	*	*	*	*	*	*	*	*	*	*	*	*	*	*ITrd5c9	*	*	*	*	*	*	*
*	*	*	*	*	*	*	*	*	*	*ij	*	*	*	*ij	*	*	*	*	*	*	*	*	*	*
!LO:TX:a:i:t=Tutti	!	!LO:DY:b:t=f.	!	!	!	!LO:DY:b:rj	!	!LO:DY:b:t=f.	!	!	!	!	!	!	!	!	!	!	!	!	!	!LO:HP:a	!	!
4E-\	.	f	4e-\	.	4G/ 4e-	f	4e-/	f	4E-\	Sanc-	4g\	Sanc-	4b-\	Sanc-	4ee-\	Sunc-	4E-/	.	4e-\	.	4b-\	>	4ee-\	.
*	*	*	*	*	*	*	*	*	*	*	*	*	*	*	*	*	*clefF4	*	*	*	*	*	*	*
*	*	*	*	*	*	*	*	*	*	*	*	*	*	*	*	*	*ITrd-2c-3	*	*	*	*	*	*	*
!	!	!	!	!	!	!	!	!	!	!	!	!	!	!	!	!	!	!	!	!LO:DY:b	!	!	!	!
2.E-\	.	.	2.E-/	.	2.G/ 2.e-	.	2.G/ 2.e-	.	4E-\	-tus	4g\	-t(us)	4b-\	-tus	4ee-\	-t(us)	2.EEE-/	.	2.e-\	f	2.b-\	]]	2.ee-\	.
*	*	*	*	*	*	*	*	*	*	*Xij	*	*	*	*Xij	*	*	*	*	*	*	*	*	*	*
!	!	!	!	!	!	!	!	!	!	!	!LO:LB:g=original	!	!	!	!	!	!	!	!	!	!	!	!	!
=-	=-	=-	=-	=-	=-	=-	=-	=-	=-	=-	=-	=-	=-	=-	=-	=-	=-	=-	=-	=-	=-	=-	=-	=-
.	.	.	.	.	.	.	.	.	2r	.	2r	.	2r	.	2r	.	.	.	.	.	.	.	.	.
!	!	!	!LO:LB:g=original	!	!LO:LB:g=original	!	!	!	!	!	!	!	!	!	!	!	!	!	!	!	!	!	!	!
=5	=5	=5	=5	=5	=5	=5	=5	=5	=5	=5	=5	=5	=5	=5	=5	=5	=5	=5	=5	=5	=5	=5	=5	=5
!	!	!	!	!	!	!	!LO:TX:a:t=dol&colon;	!	!	!	!	!	!	!	!LO:TX:a:t=1	!	!	!	!	!	!LO:TX:a:t=1	!	!LO:TX:a:t=1	!
8E-\	.	.	8E-/	.	8e-/	.	16r	.	1r	.	1r	.	1r	.	1r	.	1r	.	8e-\	.	1r	.	1r	.
!	!	!	!	!	!	!	!	!LO:DY:b:t=p.	!	!	!	!	!	!	!	!	!	!	!	!	!	!	!	!
.	.	.	.	.	.	.	16b-|\LL	p	.	.	.	.	.	.	.	.	.	.	.	.	.	.	.	.
8r	.	.	8r	.	8r	.	(16ee-\	.	.	.	.	.	.	.	.	.	.	.	8r	.	.	.	.	.
.	.	.	.	.	.	.	16dd\JJ)	.	.	.	.	.	.	.	.	.	.	.	.	.	.	.	.	.
4r	.	.	4r	.	4r	.	(16ff\LL	.	.	.	.	.	.	.	.	.	.	.	4r	.	.	.	.	.
.	.	.	.	.	.	.	16ee-\)	.	.	.	.	.	.	.	.	.	.	.	.	.	.	.	.	.
.	.	.	.	.	.	.	(16gg\	.	.	.	.	.	.	.	.	.	.	.	.	.	.	.	.	.
.	.	.	.	.	.	.	16ff\JJ)	.	.	.	.	.	.	.	.	.	.	.	.	.	.	.	.	.
2r	.	.	2r	.	2r	.	(16aa-'\LL	.	.	.	.	.	.	.	.	.	.	.	2r	.	.	.	.	.
.	.	.	.	.	.	.	16gg'\	.	.	.	.	.	.	.	.	.	.	.	.	.	.	.	.	.
.	.	.	.	.	.	.	16ff'\	.	.	.	.	.	.	.	.	.	.	.	.	.	.	.	.	.
.	.	.	.	.	.	.	16ee-'\JJ	.	.	.	.	.	.	.	.	.	.	.	.	.	.	.	.	.
.	.	.	.	.	.	.	16dd'\LL	.	.	.	.	.	.	.	.	.	.	.	.	.	.	.	.	.
.	.	.	.	.	.	.	16cc'\	.	.	.	.	.	.	.	.	.	.	.	.	.	.	.	.	.
.	.	.	.	.	.	.	16b-'\	.	.	.	.	.	.	.	.	.	.	.	.	.	.	.	.	.
.	.	.	.	.	.	.	16a-'\JJ)	.	.	.	.	.	.	.	.	.	.	.	.	.	.	.	.	.
!	!	!	!	!	!	!	!LO:LB:g=original	!	!	!	!	!	!	!	!	!	!	!	!	!	!	!	!	!
=6	=6	=6	=6	=6	=6	=6	=6	=6	=6	=6	=6	=6	=6	=6	=6	=6	=6	=6	=6	=6	=6	=6	=6	=6
!	!	!	!	!	!	!	!	!	!	!	!LO:TX:t=P:problem=zbędny takt pauzy	!	!	!	!	!	!	!	!	!	!	!	!	!
!LO:TX:t=P:problem=zbędny takt pauzy w parti Tenore	!	!	!LO:TX:t=P:problem=zbędny takt pauzy w parti Tenore	!	!LO:TX:t=P:problem=zbędny takt pauzy w parti Tenore	!	!LO:TX:t=P:problem=zbędny takt pauzy w parti Tenore	!	!LO:TX:t=P:problem=zbędny takt pauzy w parti Tenore	!	!	!	!LO:TX:t=P:problem=zbędny takt pauzy w parti Tenore	!	!LO:TX:t=P:problem=zbędny takt pauzy w parti Tenore	!	!LO:TX:t=P:problem=zbędny takt pauzy w parti Tenore	!	!LO:TX:t=P:problem=zbędny takt pauzy w parti Tenore	!	!LO:TX:t=P:problem=zbędny takt pauzy w parti Tenore	!	!LO:TX:t=P:problem=zbędny takt pauzy w parti Tenore	!
1ryy	.	.	1ryy	.	1ryy	.	1ryy	.	1ryy	.	1r	.	1ryy	.	1ryy	.	1ryy	.	1ryy	.	1ryy	.	1ryy	.
=7	=7	=7	=7	=7	=7	=7	=7	=7	=7	=7	=7	=7	=7	=7	=7	=7	=7	=7	=7	=7	=7	=7	=7	=7
2r	.	.	2r	.	2r	.	(16g/LL	.	2r	.	2r	.	2r	.	2r	.	2r	.	2r	.	2r	.	2r	.
.	.	.	.	.	.	.	16ee-/J)	.	.	.	.	.	.	.	.	.	.	.	.	.	.	.	.	.
.	.	.	.	.	.	.	8.ee-/J	.	.	.	.	.	.	.	.	.	.	.	.	.	.	.	.	.
.	.	.	.	.	.	.	16cc|/LL	.	.	.	.	.	.	.	.	.	.	.	.	.	.	.	.	.
.	.	.	.	.	.	.	(16an/	.	.	.	.	.	.	.	.	.	.	.	.	.	.	.	.	.
.	.	.	.	.	.	.	16f/JJ)	.	.	.	.	.	.	.	.	.	.	.	.	.	.	.	.	.
*	*	*	*	*	*	*	*2\right	*	*	*	*	*	*	*	*	*	*clefG2	*	*	*	*	*	*	*
*	*	*	*	*	*	*	*	*	*	*	*	*	*	*	*	*	*ITrd5c9	*	*	*	*	*	*	*
!	!	!	!	!	!	!LO:DY:a:rj	!	!LO:DY:b:t=f.	!	!	!	!	!	!	!	!	!	!	!	!	!	!	!	!
2BB-;</	5 3	.	2B-;</	.	2d'~/	f	2b-;\	f	2r;>	.	2r;;	.	2r;>	.	2r;>	.	2BB-;/	.	2B-;>/	.	2b-;>\	.	2bb-;>\	.
=8	=8	=8	=8	=8	=8	=8	=8	=8	=8	=8	=8	=8	=8	=8	=8	=8	=8	=8	=8	=8	=8	=8	=8	=8
!	!	!	!LO:TX:a:t=1	!	!	!LO:DY:a	!	!LO:DY:b:t=p.	!	!	!	!	!	!	!	!	!LO:TX:a:t=1	!	!	!	!LO:TX:a:t=1	!	!LO:TX:a:t=1	!
8BB-/	.	.	1r	.	16d'/LL	p	16f'/LL	p	1r	.	1r	.	1r	.	1r	.	1r	.	1r	.	1r	.	1r	.
!	!	!	!	!	!	!	!LO:TX:a:t=S	!	!	!	!	!	!	!	!	!	!	!	!	!	!	!	!	!
.	.	.	.	.	16d'/	.	16f'/	.	.	.	.	.	.	.	.	.	.	.	.	.	.	.	.	.
8r	.	.	.	.	16e-'/	.	16g'/	.	.	.	.	.	.	.	.	.	.	.	.	.	.	.	.	.
!	!	!	!	!	!	!	!LO:TX:a:t=S	!	!	!	!	!	!	!	!	!	!	!	!	!	!	!	!	!
.	.	.	.	.	16e-'/JJ	.	16g'/JJ	.	.	.	.	.	.	.	.	.	.	.	.	.	.	.	.	.
4r	.	.	.	.	16f'/LL	.	16a-'/LL	.	.	.	.	.	.	.	.	.	.	.	.	.	.	.	.	.
!	!	!	!	!	!	!	!LO:TX:a:t=S	!	!	!	!	!	!	!	!	!	!	!	!	!	!	!	!	!
.	.	.	.	.	16f'/	.	16a-'/	.	.	.	.	.	.	.	.	.	.	.	.	.	.	.	.	.
.	.	.	.	.	16g'/	.	16b-'/	.	.	.	.	.	.	.	.	.	.	.	.	.	.	.	.	.
!	!	!	!	!	!	!	!LO:TX:a:t=S	!	!	!	!	!	!	!	!	!	!	!	!	!	!	!	!	!
.	.	.	.	.	16g'/JJ	.	16b-'/JJ	.	.	.	.	.	.	.	.	.	.	.	.	.	.	.	.	.
4r	.	.	.	.	(16a-/LL	.	(16cc/LL	.	.	.	.	.	.	.	.	.	.	.	.	.	.	.	.	.
.	.	.	.	.	16g/)	.	16b-/)	.	.	.	.	.	.	.	.	.	.	.	.	.	.	.	.	.
.	.	.	.	.	(16f/	.	(16a-/	.	.	.	.	.	.	.	.	.	.	.	.	.	.	.	.	.
.	.	.	.	.	16e-/JJ)	.	16g/JJ)	.	.	.	.	.	.	.	.	.	.	.	.	.	.	.	.	.
8r	.	.	.	.	(16g/LL	.	(16b-/LL	.	.	.	.	.	.	.	.	.	.	.	.	.	.	.	.	.
.	.	.	.	.	16f/)	.	16a-/)	.	.	.	.	.	.	.	.	.	.	.	.	.	.	.	.	.
!LO:TX:a:i:t=Tutti	!	!	!	!	!	!	!	!	!	!	!	!	!	!	!	!	!	!	!	!	!	!	!	!
8BB-/	.	.	.	.	(16e-/	.	(16g/	.	.	.	.	.	.	.	.	.	.	.	.	.	.	.	.	.
.	.	.	.	.	16d/JJ)	.	16f/JJ)	.	.	.	.	.	.	.	.	.	.	.	.	.	.	.	.	.
!	!	!	!	!	!	!	!	!	!	!	!	!	!	!	!	!	!LO:LB:g=original	!	!LO:LB:g=original	!	!LO:LB:g=original	!	!	!
=9	=9	=9	=9	=9	=9	=9	=9	=9	=9	=9	=9	=9	=9	=9	=9	=9	=9	=9	=9	=9	=9	=9	=9	=9
*	*	*	*	*	*	*	*	*	*	*	*	*ij	*	*	*	*	*	*	*	*	*	*	*	*
!	!	!	!	!	!	!LO:DY:a	!	!LO:DY:a:t=f..	!	!	!	!	!	!	!	!	!	!	!	!	!	!	!	!
4E-\	5_ 3_	.	4e-\	.	4G/ 4e-	f	4e-/	f	4E-\	Sanc-	4g\	Sanc-	4b-\	Sanc-	4ee-\	Sanc-	4E-/	.	4e-\	.	4b-\	.	4ee-\	.
*	*	*	*	*	*	*	*	*	*	*	*	*	*	*	*	*	*clefF4	*	*	*	*	*	*	*
*	*	*	*	*	*	*	*	*	*	*	*	*	*	*	*	*	*ITrd-2c-3	*	*	*	*	*	*	*
2.E-\	x x	.	2.E-/	.	2.G/ 2.e-	.	2.G/ 2.e-	.	4E-\	-t(us)	4g\	-tus	4b-\	-tus	4ee-\	-t(us)	2.EEE-/	.	2.e-\	.	2.b-\	.	2.ee-\	.
*	*	*	*	*	*	*	*	*	*	*	*	*Xij	*	*	*	*	*	*	*	*	*	*	*	*
.	.	.	.	.	.	.	.	.	2r	.	2r	.	2r	.	2r	.	.	.	.	.	.	.	.	.
!LO:LB:g=original	!	!	!	!	!	!	!	!	!	!	!	!	!LO:LB:g=original	!	!	!	!	!	!	!	!	!	!	!
=10	=10	=10	=10	=10	=10	=10	=10	=10	=10	=10	=10	=10	=10	=10	=10	=10	=10	=10	=10	=10	=10	=10	=10	=10
!	!	!	!	!	!	!LO:DY:a	!	!	!	!	!	!	!	!	!	!	!LO:TX:a:t=1	!	!LO:TX:a:t=1	!	!	!	!LO:TX:a:t=1	!
2r	.	.	1r	.	8g/L	p	(16ee-\LL	.	1r	.	1r	.	1r	.	1r	.	1r	.	1r	.	1r	.	1r	.
.	.	.	.	.	.	.	16b-\)	.	.	.	.	.	.	.	.	.	.	.	.	.	.	.	.	.
.	.	.	.	.	8a-/	.	(16dd\	.	.	.	.	.	.	.	.	.	.	.	.	.	.	.	.	.
.	.	.	.	.	.	.	16b-\JJ)	.	.	.	.	.	.	.	.	.	.	.	.	.	.	.	.	.
.	.	.	.	.	8g/	.	(16ee-\LL	.	.	.	.	.	.	.	.	.	.	.	.	.	.	.	.	.
.	.	.	.	.	.	.	16b-\)	.	.	.	.	.	.	.	.	.	.	.	.	.	.	.	.	.
.	.	.	.	.	8a-/J	.	(16dd\	.	.	.	.	.	.	.	.	.	.	.	.	.	.	.	.	.
.	.	.	.	.	.	.	16b-\JJ)	.	.	.	.	.	.	.	.	.	.	.	.	.	.	.	.	.
!LO:TX:a:i:t=Solo	!	!	!	!	!	!	!	!	!	!	!	!	!	!	!	!	!	!	!	!	!	!	!	!
8r	.	.	.	.	(16g/LL	.	(16ee-\LL	.	.	.	.	.	.	.	.	.	.	.	.	.	.	.	.	.
.	.	.	.	.	16a-/)	.	16cc\)	.	.	.	.	.	.	.	.	.	.	.	.	.	.	.	.	.
8AA-/L	6	.	.	.	(16g/	.	(16b-\	.	.	.	.	.	.	.	.	.	.	.	.	.	.	.	.	.
.	.	.	.	.	16f/JJ)	.	16a-\JJ)	.	.	.	.	.	.	.	.	.	.	.	.	.	.	.	.	.
8BB-/	6 4	.	.	.	8e-/L	.	8g/L	.	.	.	.	.	.	.	.	.	.	.	.	.	.	.	.	.
8BB-/J	5 3	.	.	.	8dt/J	.	8fT/J	.	.	.	.	.	.	.	.	.	.	.	.	.	.	.	.	.
!	!	!	!	!	!LO:LB:g=original	!	!	!	!	!	!	!	!	!	!	!	!	!	!	!	!	!	!	!
=11	=11	=11	=11	=11	=11	=11	=11	=11	=11	=11	=11	=11	=11	=11	=11	=11	=11	=11	=11	=11	=11	=11	=11	=11
*	*	*	*	*	*	*	*	*	*	*	*	*	*	*	*	*	*clefG2	*	*	*	*	*	*	*
*	*	*	*	*	*	*	*	*	*	*	*	*	*	*	*	*	*ITrd5c9	*	*	*	*	*	*	*
*tremolo	*	*	*	*	*	*	*	*	*	*	*	*	*	*	*	*	*	*	*	*	*	*	*	*
!	!	!	!	!	!	!LO:DY:b:rj	!	!LO:DY:b:t=f.	!	!	!LO:TX:t=P:problem=kasownik dopisany innym tuszem	!	!	!	!	!	!	!	!LO:DY:b	!	!	!	!LO:DY:b	!
!	!	!LO:DY:b:t=f.	!	!	!	!	!	!	!	!	!	!	!	!	!	!	!	!LO:DY:b:rj	!	!	!	!	!	!
16BBn/LL	-6 4	f	16G-X/LL	.	16e-|/LL	f	(16e-/LL	f	4E-\	Sanc-	4B-\	Sanc-	4g-X\	Sanc-	4ee-\	Sanc-	1E-	f	1e-	f	1ee-	.	1gg-X	f
16BBn/	.	.	16G-/	.	16e-|/	.	16g-X/)	.	.	.	.	.	.	.	.	.	.	.	.	.	.	.	.	.
!	!	!	!	!LO:DY:b	!	!	!	!	!	!	!	!	!	!	!	!	!	!	!	!	!	!	!	!
16BBn/	.	.	16G-/	f	16e-|/	.	16g-|/	.	.	.	.	.	.	.	.	.	.	.	.	.	.	.	.	.
16BBn/	.	.	16G-/JJ	.	16e-|/JJ	.	16g-|/JJ	.	.	.	.	.	.	.	.	.	.	.	.	.	.	.	.	.
16BBn/	.	.	16G-/LL	.	(16e-/LL	.	(16g-/LL	.	4E-\	-tus	4B-\	-t(us)	4g-\	-t(us)	4ee-\	-t(us)	.	.	.	.	.	.	.	.
16BBn/	.	.	16G-/	.	16g-X/)	.	16e-/)	.	.	.	.	.	.	.	.	.	.	.	.	.	.	.	.	.
16BBn/	.	.	16G-/	.	16g-|/	.	16e-|/	.	.	.	.	.	.	.	.	.	.	.	.	.	.	.	.	.
16BBn/JJ	.	.	16G-/JJ	.	16g-|/JJ	.	16e-|/JJ	.	.	.	.	.	.	.	.	.	.	.	.	.	.	.	.	.
*	*	*	*	*	*tremolo	*	*	*	*	*	*	*	*	*	*	*	*	*	*	*	*	*	*	*
16AAn/LL	-7 5	.	16An/LL	.	16e-/LL	.	16r	.	8.An\	Do-	8.An\	Do-	8.g-\	Do-	8.ee-\	Do-	.	.	.	.	.	.	.	.
16AAn/	.	.	16A/	.	16e-/	.	16g-X|/LL	.	.	.	.	.	.	.	.	.	.	.	.	.	.	.	.	.
16AAn/	.	.	16A/	.	16e-/	.	16g-|/	.	.	.	.	.	.	.	.	.	.	.	.	.	.	.	.	.
16AAn/	.	.	16A/JJ	.	16e-/JJ	.	16g-|/JJ	.	16A\	-mi-	16A\	-mi-	16g-\	-mi-	16ee-\	-mi-	.	.	.	.	.	.	.	.
*	*	*	*	*	*Xtremolo	*	*	*	*	*	*	*	*	*	*	*	*	*	*	*	*	*	*	*
16AAn/	.	.	16A/LL	.	(16e-/LL	.	(16g-/LL	.	4A\	-n(us)	4A\	-n(us)	4g-\	-n(us)	4ee-\	-n(us)	.	.	.	.	.	.	.	.
16AAn/	.	.	16A/	.	16g-/)	.	16e-/)	.	.	.	.	.	.	.	.	.	.	.	.	.	.	.	.	.
16AAn/	.	.	16A/	.	16g-|/	.	16e-|/	.	.	.	.	.	.	.	.	.	.	.	.	.	.	.	.	.
16AAn/JJ	.	.	16A/JJ	.	16g-|/JJ	.	16e-|/JJ	.	.	.	.	.	.	.	.	.	.	.	.	.	.	.	.	.
!	!	!	!LO:LB:g=original	!	!	!	!LO:LB:g=original	!	!	!	!	!	!	!	!	!	!	!	!	!	!	!	!LO:LB:g=original	!
=12	=12	=12	=12	=12	=12	=12	=12	=12	=12	=12	=12	=12	=12	=12	=12	=12	=12	=12	=12	=12	=12	=12	=12	=12
16BB-X/LL	-6 4	.	16B-X/LL	.	16e-|/LL	.	16r	.	4B-\	De-	4B-X\	De-	4g-X\	De-	4ee-\	De-	1BB-	.	1B-	.	2ee-\	.	2gg-X\	.
16BB-X/	.	.	16B-/	.	16e-|/	.	16g-X|/LL	.	.	.	.	.	.	.	.	.	.	.	.	.	.	.	.	.
16BB-X/	.	.	16B-/	.	16e-|/	.	16g-|/	.	.	.	.	.	.	.	.	.	.	.	.	.	.	.	.	.
16BB-X/	.	.	16B-/JJ	.	16e-|/JJ	.	16g-|/JJ	.	.	.	.	.	.	.	.	.	.	.	.	.	.	.	.	.
16BB-X/	.	.	16B-/LL	.	(16e-/LL	.	(16g-/LL	.	4B-\	-us	4B-\	-us	4g-\	-us	4ee-\	-us	.	.	.	.	.	.	.	.
16BB-X/	.	.	16B-/	.	16g-X/)	.	16e-/)	.	.	.	.	.	.	.	.	.	.	.	.	.	.	.	.	.
16BB-X/	.	.	16B-/	.	16g-|/	.	16e-|/	.	.	.	.	.	.	.	.	.	.	.	.	.	.	.	.	.
16BB-X/JJ	.	.	16B-/JJ	.	16g-|/JJ	.	16e-|/JJ	.	.	.	.	.	.	.	.	.	.	.	.	.	.	.	.	.
!	!	!	!	!	!	!	!	!	!LO:LB:g=original	!	!	!	!	!	!LO:LB:g=original	!	!	!	!	!	!	!	!	!
=-	=-	=-	=-	=-	=-	=-	=-	=-	=-	=-	=-	=-	=-	=-	=-	=-	=-	=-	=-	=-	=-	=-	=-	=-
16BB-/LL	.	.	16B-/LL	.	16r	.	16r	.	4F\	Sa-	8B-\	Sa-	4a-\	Sa-	4cc-X\	Sa-	.	.	.	.	2a-\	.	2cc-X\	.
16BB-/	.	.	16B-/	.	16a-|/LL	.	16cc-X|\LL	.	.	.	.	.	.	.	.	.	.	.	.	.	.	.	.	.
16BB-/	.	.	16B-/	.	16a-|/	.	16cc-|\	.	.	.	8B-\	-ba-	.	.	.	.	.	.	.	.	.	.	.	.
16BB-/	.	.	16B-/JJ	.	16a-|/JJ	.	16cc-|\JJ	.	.	.	.	.	.	.	.	.	.	.	.	.	.	.	.	.
16BB-/	.	.	16B-/LL	.	(16a-/LL	.	(16cc-\LL	.	8F\	-ba-	4B-\	-oth	8a-\	-ba-	8cc-\	-ba-	.	.	.	.	.	.	.	.
16BB-/	.	.	16B-/	.	16f/)	.	16a-\)	.	.	.	.	.	.	.	.	.	.	.	.	.	.	.	.	.
16BB-/	.	.	16B-/	.	16f|/	.	16a-|\	.	8F\	-oth	.	.	8a-\	-oth	8cc-\	-oth	.	.	.	.	.	.	.	.
16BB-/JJ	.	.	16B-/JJ	.	16f|/JJ	.	16a-|\JJ	.	.	.	.	.	.	.	.	.	.	.	.	.	.	.	.	.
!	!	!	!	!	!	!	!	!	!	!	!LO:LB:g=original	!	!	!	!	!	!	!	!	!	!	!	!	!
=13	=13	=13	=13	=13	=13	=13	=13	=13	=13	=13	=13	=13	=13	=13	=13	=13	=13	=13	=13	=13	=13	=13	=13	=13
16BB-/LL	.	.	16B-/LL	.	16e-|/LL	.	16r	.	8E-\	Sanc-	8B-\	Sanc-	8g-X\	Sanc-	8b-\	Sanc-	1BB-	.	1B-	.	2b-\	.	2ee-\	.
16BB-/	.	.	16B-/	.	16e-|/	.	16g-X|/LL	.	.	.	.	.	.	.	.	.	.	.	.	.	.	.	.	.
16BB-/	.	.	16B-/	.	16e-|/	.	16g-|/	.	8E-\	-t(us)	8B-\	-t(us)	8g-\	-t(us)	8b-\	-tus	.	.	.	.	.	.	.	.
16BB-/	.	.	16B-/JJ	.	16e-/JJ	.	16g-|/JJ	.	.	.	.	.	.	.	.	.	.	.	.	.	.	.	.	.
16BB-/	.	.	16B-/LL	.	(16e-/LL	.	(16g-/LL	.	8E-\	Do-	8B-\	Do-	8g-\	Do-	8b-\	Do-	.	.	.	.	.	.	.	.
16BB-/	.	.	16B-/	.	16g-X/)	.	16e-/)	.	.	.	.	.	.	.	.	.	.	.	.	.	.	.	.	.
16BB-/	.	.	16B-/	.	16g-|/	.	16e-|/	.	16E-\	-mi-	16B-\	-mi-	16g-\	-mi-	16b-\	-mi-	.	.	.	.	.	.	.	.
16BB-/JJ	.	.	16B-/JJ	.	16g-|/JJ	.	16e-|/JJ	.	16E-\	-nus	16B-\	-nus	16g-\	-n(us)	16b-\	-nus	.	.	.	.	.	.	.	.
16BB-/LL	.	.	16B-/LL	.	16r	.	16r	.	4F\	de-	4B-\	De-	4a-\	De-	4a-\	De-	.	.	.	.	2a-\	.	2cc-X\	.
16BB-/	.	.	16B-/	.	16a-/LL	.	16cc-X|\LL	.	.	.	.	.	.	.	.	.	.	.	.	.	.	.	.	.
16BB-/	.	.	16B-/	.	16a-/	.	16cc-|\	.	.	.	.	.	.	.	.	.	.	.	.	.	.	.	.	.
16BB-/	.	.	16B-/JJ	.	16a-/JJ	.	16cc-|\JJ	.	.	.	.	.	.	.	.	.	.	.	.	.	.	.	.	.
16BB-/	.	.	16B-/LL	.	(16a-/LL	.	(16cc-\LL	.	4F\	-us	4B-\	-us	4a-\	-us	4a-\	-us	.	.	.	.	.	.	.	.
16BB-/	.	.	16B-/	.	16f/)	.	16a-\)	.	.	.	.	.	.	.	.	.	.	.	.	.	.	.	.	.
16BB-/	.	.	16B-/	.	16f|/	.	16a-|\	.	.	.	.	.	.	.	.	.	.	.	.	.	.	.	.	.
16BB-/JJ	.	.	16B-/JJ	.	16f|/JJ	.	16a-|\JJ	.	.	.	.	.	.	.	.	.	.	.	.	.	.	.	.	.
*Xtremolo	*	*	*	*	*	*	*	*	*	*	*	*	*	*	*	*	*	*	*	*	*	*	*	*
!	!	!	!	!	!LO:LB:g=original	!	!	!	!	!	!	!	!LO:LB:g=original	!	!	!	!	!	!	!	!	!	!	!
=14	=14	=14	=14	=14	=14	=14	=14	=14	=14	=14	=14	=14	=14	=14	=14	=14	=14	=14	=14	=14	=14	=14	=14	=14
4E-\	-	.	4G-X/	.	16r	.	16r	.	4E-\	Sa-	4B-\	Sa-	4g-X\	Sa-	4b-\	Sa-	4E-/	.	4e-\	.	4b-\	.	4ee-\	.
.	.	.	.	.	16e-|/LL	.	16g-X|/LL	.	.	.	.	.	.	.	.	.	.	.	.	.	.	.	.	.
.	.	.	.	.	(16e-/	.	(16g-/	.	.	.	.	.	.	.	.	.	.	.	.	.	.	.	.	.
.	.	.	.	.	16g-X/JJ)	.	16e-/JJ)	.	.	.	.	.	.	.	.	.	.	.	.	.	.	.	.	.
4F\	n	.	4An/	.	16r	.	16r	.	4F\	-ba-	4e-\	-ba-	4cc\	-ba-	4an\	-ba-	4r	.	4r	.	4cc\	.	4aa\	.
.	.	.	.	.	16c/LL	.	16an|/LL	.	.	.	.	.	.	.	.	.	.	.	.	.	.	.	.	.
.	.	.	.	.	16c/	.	(16a/	.	.	.	.	.	.	.	.	.	.	.	.	.	.	.	.	.
.	.	.	.	.	16c/JJ	.	16f/JJ)	.	.	.	.	.	.	.	.	.	.	.	.	.	.	.	.	.
4B-|\	.	.	4B-/	.	16r	.	16r	.	8B-\	-oth,	8d\	-oth,	8f\	-oth,	8b-\	-oth	4r	.	4r	.	8b-\	.	8bb-\	.
.	.	.	.	.	16B-|/LL	.	16b-|/LL	.	.	.	.	.	.	.	.	.	.	.	.	.	.	.	.	.
.	.	.	.	.	16B-|/	.	16b-|/	.	8r	.	8r	.	8r	.	8r	.	.	.	.	.	8r	.	8r	.
.	.	.	.	.	16B-|/JJ	.	16b-|/JJ	.	.	.	.	.	.	.	.	.	.	.	.	.	.	.	.	.
*	*	*	*tremolo	*	*	*	*	*	*	*	*	*	*	*	*	*	*	*	*	*	*	*	*	*
!LO:TX:t=P:problem=mixed beam	!	!	!	!	!	!	!	!	!	!	!	!	!	!	!	!	!	!	!	!	!	!	!	!
16B-|>\LL	.	.	16B-/LL	.	16B-/LL	.	16b-/LL	.	4r	.	4r	.	4r	.	4r	.	16r	.	16r	.	16r	.	16r	.
16BB-|</	.	.	16B-/	.	16B-/	.	16B-|/	.	.	.	.	.	.	.	.	.	16BB-/LL	.	16B-/LL	.	16b-|\LL	.	16bb-\LL	.
16BB-|</	.	.	16B-/	.	16B-/	.	16B-|/	.	.	.	.	.	.	.	.	.	16BB-/	.	16B-/	.	16b-|\	.	16bb-\	.
16BB-|</JJ	.	.	16B-/JJ	.	16B-/JJ	.	16B-|/JJ	.	.	.	.	.	.	.	.	.	16BB-/JJ	.	16B-/JJ	.	16b-|\JJ	.	16bb-\JJ	.
*	*	*	*Xtremolo	*	*	*	*	*	*	*	*	*	*	*	*	*	*	*	*	*	*	*	*	*
!	!	!	!LO:LB:g=original	!	!	!	!	!	!	!	!	!	!	!	!	!	!	!	!	!	!	!	!	!
=15	=15	=15	=15	=15	=15	=15	=15	=15	=15	=15	=15	=15	=15	=15	=15	=15	=15	=15	=15	=15	=15	=15	=15	=15
!	!	!	!	!	!	!	!	!	!	!	!	!	!	!	!LO:TX:a:i:t=Alle	!	!	!	!	!	!	!	!	!
!	!	!	!LO:TX:b:i:t=Volti Subitto Pleni ſunt	!	!	!	!LO:TX:b:i:t=Volti Subit\nPleni D	!	!	!	!	!	!	!	!LO:TX:a:i:t=Pleni	!	!	!	!	!	!LO:TX:a:i:t=Alle	!	!	!
1BB-;	.	.	1B-;	.	1B-	.	1B-;	.	1r;>	.	1r;>	.	1r;>	.	1r;>	.	[<2BB-;>/	.	2B-;>/	.	1b-;>	.	1bb-;	.
.	.	.	.	.	.	.	.	.	.	.	.	.	.	.	.	.	2BB-/]	.	2ryy	.	.	.	.	.
!	!	!	!LO:PB:g=original	!	!LO:LB:g=original	!	!LO:PB:g=original	!	!	!	!	!	!LO:LB:g=original	!	!LO:LB:g=original	!	!LO:LB:g=original	!	!LO:LB:g=original	!	!LO:LB:g=original	!	!	!
=16||	=16||	=16||	=16||	=16||	=16||	=16||	=16||	=16||	=16||	=16||	=16||	=16||	=16||	=16||	=16||	=16||	=16||	=16||	=16||	=16||	=16||	=16||	=16||	=16||
*	*	*	*ok[a-e-a-]	*	*ok[b-a-e-]	*	*	*	*	*	*ok[b-f-g-]	*	*	*	*	*	*	*	*	*	*	*	*	*
*k[b-e-a-]	*	*	*k[b-e-a-]	*	*k[b-e-a-]	*	*k[b-e-a-]	*	*k[b-e-a-]	*	*k[b-e-a-]	*	*k[b-e-a-]	*	*k[b-e-a-]	*	*k[b-e-a-]	*	*k[b-e-a-]	*	*k[b-e-a-]	*	*k[b-e-a-]	*
*M2/4	*	*	*M2/4	*	*M2/4	*	*M2/4	*	*M2/4	*	*M2/4	*	*M2/4	*	*M2/4	*	*M2/4	*	*M2/4	*	*M2/4	*	*M2/4	*
!	!	!	!LO:TX:a:t=alle	!	!LO:TX:a:t=alle	!	!LO:TX:a:t=allegro	!	!LO:TX:a:t=allŏ	!	!LO:TX:a:t=Ple	!	!	!	!	!	!	!	!LO:TX:a:i:t=alle	!	!	!	!LO:TX:a:i:t=Pleni	!
!LO:TX:a:t=Allegro	!	!	!LO:TX:b:t=Pleni	!LO:DY:b:rj	!LO:TX:a:i:t=Pleni	!LO:DY:b	!LO:TX:b:i:t=Pleni	!LO:DY:a:t=f.	!LO:TX:a:t=Pleni	!	!LO:TX:a:t=Allo	!	!LO:TX:a:t=allo	!	!LO:TX:a:i:t=Allo	!	!LO:TX:a:i:t=Pleni	!	!LO:TX:a:i:t=Pleni	!LO:DY:b	!LO:TX:a:i:t=Pleni	!	!LO:TX:a:i:t=Alle	!
4E-\	5 3	.	2E-/	p	4g/	f	4G/ 4e- 4ee-	f	0r	.	0r	.	4g\	Ple-	4ee-\	Ple-	4E-/	.	4e-\	p	4b-\	.	4ee-\	.
!	!	!	!	!	!	!LO:DY:b:t=p.	!	!LO:DY:b	!	!	!	!	!	!	!	!	!	!	!	!	!	!	!	!
4EE-/	.	.	.	.	(8g'/L	p	8ee-|\L	p	.	.	.	.	8g\	-ni	8ee-\	-ni	4r	.	4r	.	4r	.	4r	.
.	.	.	.	.	8g'/J)	.	8ee-|\J	.	.	.	.	.	8g\	sunt	8ee-\	sunt	.	.	.	.	.	.	.	.
=17	=17	=17	=17	=17	=17	=17	=17	=17	=17	=17	=17	=17	=17	=17	=17	=17	=17	=17	=17	=17	=17	=17	=17	=17
!	!	!	!	!	!	!	!	!	!	!	!	!	!	!	!	!	!	!	!	!	!LO:TX:a:t=1	!	!LO:TX:a:t=1	!
2r	.	.	2E-/	.	(8g/L	.	(8ee-\L	.	.	.	.	.	8g\L	Cae-	8ee-\L	cae-	2r	.	2r	.	2r	.	2r	.
.	.	.	.	.	8b-/)	.	8dd\)	.	.	.	.	.	8b-\J	.	8dd\J	.	.	.	.	.	.	.	.	.
.	.	.	.	.	(8a-/	.	(8cc\	.	.	.	.	.	8a-\L	-li	8cc\L	-li	.	.	.	.	.	.	.	.
.	.	.	.	.	8g/J)	.	8b-\J)	.	.	.	.	.	8g\J	.	8b-\J	.	.	.	.	.	.	.	.	.
=18	=18	=18	=18	=18	=18	=18	=18	=18	=18	=18	=18	=18	=18	=18	=18	=18	=18	=18	=18	=18	=18	=18	=18	=18
*	*	*	*	*	*	*	*	*	*	*	*	*	*	*ij	*	*	*	*	*	*	*	*	*	*
!	!	!	!	!	!	!LO:DY:b	!	!	!	!	!	!	!	!	!	!	!	!	!	!	!	!	!	!
4E-\	6_ 4_	.	2E-/	.	4a-/	f	4e-/ 4cc	.	.	.	.	.	4a-\	Ple-	4cc\	Ple-	4E-/	.	4e-\	.	4b-\	.	4ee-\	.
!	!	!	!	!	!	!LO:DY:b	!	!LO:DY:b	!	!	!	!	!	!	!	!	!	!	!	!	!	!	!	!
4EE-/	x x	.	.	.	8a-/L	p	(8cc'\L	p	.	.	.	.	8a-\	-ni	8cc\	-ni	4r	.	4r	.	4r	.	4r	.
.	.	.	.	.	8a-/J	.	8cc'\J)	.	.	.	.	.	8a-\	sunt	8cc\	sunt	.	.	.	.	.	.	.	.
=19	=19	=19	=19	=19	=19	=19	=19	=19	=19	=19	=19	=19	=19	=19	=19	=19	=19	=19	=19	=19	=19	=19	=19	=19
!	!	!	!	!	!	!	!	!	!	!	!	!	!	!	!	!	!	!	!	!	!	!	!LO:TX:a:t=1	!
2r	.	.	2E-/	.	(8a-/L	.	(8cc\L	.	.	.	.	.	8a-\L	Cae-	8cc\L	Cae-	2r	.	2r	.	2r	.	2r	.
.	.	.	.	.	8g/)	.	8b-\)	.	.	.	.	.	8g\J	.	8b-\J	.	.	.	.	.	.	.	.	.
.	.	.	.	.	(8f/	.	(8a-\	.	.	.	.	.	8f\L	-li	8a-\L	-li	.	.	.	.	.	.	.	.
*	*	*	*	*	*	*	*	*	*	*	*	*	*	*Xij	*	*	*	*	*	*	*	*	*	*
.	.	.	.	.	8e-/J)	.	8g\J)	.	.	.	.	.	8e-\J	.	8g\J	.	.	.	.	.	.	.	.	.
!LO:LB:g=original	!	!	!	!	!	!	!	!	!LO:LB:g=original	!	!	!	!	!	!	!	!	!	!	!	!	!	!	!
=20	=20	=20	=20	=20	=20	=20	=20	=20	=20	=20	=20	=20	=20	=20	=20	=20	=20	=20	=20	=20	=20	=20	=20	=20
*	*	*	*	*	*tremolo	*	*	*	*	*	*	*	*	*	*	*ij	*	*	*	*	*	*	*	*
!	!	!	!	!LO:DY:b	!	!	!	!	!LO:SIC:v:s=4D\	!	!	!	!	!	!	!	!LO:N:vis=1	!	!	!	!	!	!	!
8BB-\L	7	.	8B-/L	f	16d/LL	.	8a-/	.	4E-\	Ple-	4B-\	Ple-	4f\	Ple-	4aa-\	Ple-	2B-/	f	2f\	.	4ff\	.	4aa-\	.
.	.	.	.	.	16d/	.	.	.	.	.	.	.	.	.	.	.	.	.	.	.	.	.	.	.
8F\	.	.	8f/	.	16d/	.	4B-/	.	.	.	.	.	.	.	.	.	.	.	.	.	.	.	.	.
.	.	.	.	.	16d/	.	.	.	.	.	.	.	.	.	.	.	.	.	.	.	.	.	.	.
!	!	!	!	!	!	!	!	!	!LO:SIC:v:s=8D\	!	!	!	!	!	!	!	!	!	!	!	!	!LO:DY:b	!	!
8D\	.	.	8d/	.	16d/	.	.	.	8E-\	-ni	8B-\	-ni	8f\	-ni	8aa-\	-ni	.	.	.	.	4ff\	f	4aa-\	.
.	.	.	.	.	16d/	.	.	.	.	.	.	.	.	.	.	.	.	.	.	.	.	.	.	.
!	!	!	!	!	!	!	!	!	!LO:SIC:v:s=8D\	!	!	!	!	!	!	!	!	!	!	!	!	!	!	!
8BB-\J	.	.	8B-/J	.	16d/	.	8a-/	.	8E-\	sunt	8B-\	sunt	8f\	sunt	8aa-\	sunt	.	.	.	.	.	.	.	.
.	.	.	.	.	16d/JJ	.	.	.	.	.	.	.	.	.	.	.	.	.	.	.	.	.	.	.
!	!	!	!	!	!	!	!	!	!	!	!LO:LB:g=original	!	!LO:LB:g=original	!	!	!	!	!	!	!	!	!	!LO:LB:g=original	!
=21	=21	=21	=21	=21	=21	=21	=21	=21	=21	=21	=21	=21	=21	=21	=21	=21	=21	=21	=21	=21	=21	=21	=21	=21
!	!	!	!	!	!	!	!	!	!	!	!	!	!	!	!	!	!LO:N:vis=1	!	!	!	!	!	!	!
8E-\L	3	.	8e-|\L	.	16e-/LL	.	8g/	.	4E-\	Cae-	4B-\	Cae-	4b-\	Cae-	4gg\	Cae-	2G/	.	2e-\	.	4.ee-\	.	4.gg\	.
.	.	.	.	.	16e-/	.	.	.	.	.	.	.	.	.	.	.	.	.	.	.	.	.	.	.
8B-\	.	.	8b-|\	.	16e-/	.	4B-/	.	.	.	.	.	.	.	.	.	.	.	.	.	.	.	.	.
.	.	.	.	.	16e-/	.	.	.	.	.	.	.	.	.	.	.	.	.	.	.	.	.	.	.
8G\	.	.	8g|\	.	16e-/	.	.	.	4E-\	-li	4B-\	-li	4b-\	-li	4gg\	-li	.	.	.	.	.	.	.	.
*	*	*	*	*	*	*	*	*	*	*	*	*	*	*	*	*Xij	*	*	*	*	*	*	*	*
.	.	.	.	.	16e-/	.	.	.	.	.	.	.	.	.	.	.	.	.	.	.	.	.	.	.
8E-\J	.	.	8e-|\J	.	16e-/	.	8g/	.	.	.	.	.	.	.	.	.	.	.	.	.	8ee-\	.	8gg\	.
.	.	.	.	.	16e-/JJ	.	.	.	.	.	.	.	.	.	.	.	.	.	.	.	.	.	.	.
=22	=22	=22	=22	=22	=22	=22	=22	=22	=22	=22	=22	=22	=22	=22	=22	=22	=22	=22	=22	=22	=22	=22	=22	=22
!	!	!	!	!	!	!	!	!	!	!	!	!	!	!	!	!	!LO:N:vis=1	!	!	!	!	!	!	!
4A-\	6 5	.	8d|\L	.	16f/LL	.	8f|/L	.	8D\L	et	4B-\	et	4a-\	et	4ff\	et	2BB-/	.	2B-/	.	4dd\	.	4ff\	.
.	.	.	.	.	16f/	.	.	.	.	.	.	.	.	.	.	.	.	.	.	.	.	.	.	.
.	.	.	8f|\	.	16f/	.	8dd|/	.	8F\J	.	.	.	.	.	.	.	.	.	.	.	.	.	.	.
.	.	.	.	.	16f/	.	.	.	.	.	.	.	.	.	.	.	.	.	.	.	.	.	.	.
4B-\	7	.	8a-|\	.	16f/	.	8b-|/	.	8A-\L	ter-	4B-\	ter-	4f\	ter-	4dd\	ter-	.	.	.	.	4b-\	.	4dd\	.
.	.	.	.	.	16f/	.	.	.	.	.	.	.	.	.	.	.	.	.	.	.	.	.	.	.
.	.	.	8b-\J	.	16f/	.	8dd|/J	.	8B-\J	.	.	.	.	.	.	.	.	.	.	.	.	.	.	.
.	.	.	.	.	16f/JJ	.	.	.	.	.	.	.	.	.	.	.	.	.	.	.	.	.	.	.
*	*	*	*	*	*Xtremolo	*	*	*	*	*	*	*	*	*	*	*	*	*	*	*	*	*	*	*
!	!	!	!	!	!LO:LB:g=original	!	!	!	!	!	!	!	!	!	!	!	!	!	!	!	!	!	!	!
=23	=23	=23	=23	=23	=23	=23	=23	=23	=23	=23	=23	=23	=23	=23	=23	=23	=23	=23	=23	=23	=23	=23	=23	=23
4E-\	.	.	4e-\	.	4g/	.	4ee-\	.	4E-\	-ra	4B-\	-ra	4g\	-ra	4ee-\	-ra	4G/	.	4e-\	.	4b-\	.	4ee-\	.
!LO:TX:a:i:t=Solo	!	!	!	!	!	!	!	!	!	!	!	!	!	!	!	!	!	!	!	!	!	!	!	!
4r	.	.	4r	.	4r	.	4r	.	4r	.	4r	.	4r	.	4r	.	4r	.	4r	.	4r	.	4r	.
!	!	!	!LO:LB:g=original	!	!	!	!	!	!	!	!	!	!	!	!LO:LB:g=original	!	!	!	!	!	!LO:LB:g=original	!	!	!
=24	=24	=24	=24	=24	=24	=24	=24	=24	=24	=24	=24	=24	=24	=24	=24	=24	=24	=24	=24	=24	=24	=24	=24	=24
*tremolo	*	*	*	*	*tremolo	*	*	*	*	*	*	*	*	*	*	*	*	*	*	*	*	*	*	*
!	!	!LO:DY:b:t=p.:rj	!	!	!	!LO:DY:b	!	!LO:DY:b	!	!	!	!	!	!	!	!	!	!	!	!	!LO:TX:a:t=4	!	!LO:TX:a:t=4	!
8D\L	6	p	2F/	.	8f/L	p	8b-\L	p	0r	.	0r	.	4f\	glo-	4b-\	glo-	0r	.	0r	.	0r	.	0r	.
8D\	.	.	.	.	8f/	.	8b-\J	.	.	.	.	.	.	.	.	.	.	.	.	.	.	.	.	.
8D\	.	.	.	.	8f/	.	(16cc\LL	.	.	.	.	.	8f\	-ri-	8b-\	-ri-	.	.	.	.	.	.	.	.
.	.	.	.	.	.	.	16b-\	.	.	.	.	.	.	.	.	.	.	.	.	.	.	.	.	.
8D\J	.	.	.	.	8f/J	.	16an\	.	.	.	.	.	8f\	-a	8b-\	-a	.	.	.	.	.	.	.	.
.	.	.	.	.	.	.	16b-\JJ)	.	.	.	.	.	.	.	.	.	.	.	.	.	.	.	.	.
=25	=25	=25	=25	=25	=25	=25	=25	=25	=25	=25	=25	=25	=25	=25	=25	=25	=25	=25	=25	=25	=25	=25	=25	=25
8C\L	6\	.	2F/	.	8e-/L	.	(8b-\L	.	.	.	.	.	4f\	tu-	8b-\L	tu-	.	.	.	.	.	.	.	.
8C\	.	.	.	.	8e-/	.	8an\J)	.	.	.	.	.	.	.	8an\J	.	.	.	.	.	.	.	.	.
8C\	.	.	.	.	8e-/	.	4a|\	.	.	.	.	.	4f\	-a	4a\	-a	.	.	.	.	.	.	.	.
8C\J	.	.	.	.	8e-/J	.	.	.	.	.	.	.	.	.	.	.	.	.	.	.	.	.	.	.
=26	=26	=26	=26	=26	=26	=26	=26	=26	=26	=26	=26	=26	=26	=26	=26	=26	=26	=26	=26	=26	=26	=26	=26	=26
*	*	*	*	*	*	*	*	*	*	*	*	*	*	*ij	*	*ij	*	*	*	*	*	*	*	*
8AAn/L	6 5	.	2An/	.	8c/L	.	8f/	.	.	.	.	.	4cc\	glo-	4ee-\	glo-	.	.	.	.	.	.	.	.
8AAn/	.	.	.	.	8c/	.	4ee-\	.	.	.	.	.	.	.	.	.	.	.	.	.	.	.	.	.
8AAn/	.	.	.	.	8c/	.	.	.	.	.	.	.	8cc\	-ri-	8ee-\	-ri-	.	.	.	.	.	.	.	.
8AAn/J	.	.	.	.	8c/J	.	(16cc\LL	.	.	.	.	.	8cc\	-a	8ee-\	-a	.	.	.	.	.	.	.	.
.	.	.	.	.	.	.	16an\JJ)	.	.	.	.	.	.	.	.	.	.	.	.	.	.	.	.	.
=27	=27	=27	=27	=27	=27	=27	=27	=27	=27	=27	=27	=27	=27	=27	=27	=27	=27	=27	=27	=27	=27	=27	=27	=27
8BB-/L	.	.	2B-/	.	8f/L	.	(8ee-\L	.	.	.	.	.	8cc\L	tu-	8ee-\L	tu-	.	.	.	.	.	.	.	.
8BB-/	.	.	.	.	8f/	.	8dd\J)	.	.	.	.	.	8b-\J	.	8dd\J	.	.	.	.	.	.	.	.	.
8BB-/	.	.	.	.	8f/	.	4dd\	.	.	.	.	.	4b-\	-a	4dd\	-a	.	.	.	.	.	.	.	.
*	*	*	*	*	*	*	*	*	*	*	*	*	*	*Xij	*	*Xij	*	*	*	*	*	*	*	*
8BB-/J	.	.	.	.	8f/J	.	.	.	.	.	.	.	.	.	.	.	.	.	.	.	.	.	.	.
!	!	!	!	!	!	!	!LO:LB:g=original	!	!	!	!	!	!	!	!	!	!	!	!	!	!	!	!	!
=28	=28	=28	=28	=28	=28	=28	=28	=28	=28	=28	=28	=28	=28	=28	=28	=28	=28	=28	=28	=28	=28	=28	=28	=28
*	*	*	*2\right	*	*	*	*	*	*	*	*	*	*	*	*	*	*	*	*	*	*	*	*	*
*	*	*	*tremolo	*	*	*	*	*	*	*	*	*	*	*	*	*	*	*	*	*	*	*	*	*
!LO:TX:a:i:t=Tutti:rj	!	!LO:DY:b:t=f.:rj	!	!LO:DY:b	!	!	!	!	!	!	!	!	!	!	!	!	!	!LO:DY:b	!	!	!	!	!	!
8D\L	6	f	8f\L	f	16f/LL	.	16ff\LL	.	4D\	Glo-	4B-\	glo-	4b-\	glo-	4ff\	glo-	2B-/	f	2f\	.	4.dd\	.	4.ff\	.
.	.	.	.	.	16f/	.	16b-|\	.	.	.	.	.	.	.	.	.	.	.	.	.	.	.	.	.
8D\	.	.	8f\	.	16f/	.	16cc|\	.	.	.	.	.	.	.	.	.	.	.	.	.	.	.	.	.
.	.	.	.	.	16f/	.	16dd|\JJ	.	.	.	.	.	.	.	.	.	.	.	.	.	.	.	.	.
8D\	-5 3	.	8f\	.	16f/	.	16ee-|\LL	.	8D\	-ri-	8B-\	-ri-	8b-\	-ri-	8ff\	-ri-	.	.	.	.	.	.	.	.
.	.	.	.	.	16f/	.	16ff|\	.	.	.	.	.	.	.	.	.	.	.	.	.	.	.	.	.
8D\J	.	.	8f\J	.	16f/	.	16gg|\	.	8D\	-a	8B-\	-a	8b-\	-a	8ff\	-a	.	.	.	.	8ff\	.	8aa-X\	.
.	.	.	.	.	16f/JJ	.	16aa-X|\JJ	.	.	.	.	.	.	.	.	.	.	.	.	.	.	.	.	.
!	!	!	!	!	!	!	!	!	!	!	!	!	!	!	!	!	!	!	!LO:LB:g=original	!	!	!	!	!
=29	=29	=29	=29	=29	=29	=29	=29	=29	=29	=29	=29	=29	=29	=29	=29	=29	=29	=29	=29	=29	=29	=29	=29	=29
*	*	*	*	*	*	*	*	*	*	*ij	*	*ij	*	*ij	*	*ij	*2\right	*	*	*	*	*	*	*
8E-\L	6	.	8e-\L	.	16g/LL	.	8gg\L	.	4E-\	Glo-	4c\	glo-	4cc\	glo-	4gg\	glo-	2e-\	.	2g\	.	4ee-\	.	4gg\	.
.	.	.	.	.	16g/	.	.	.	.	.	.	.	.	.	.	.	.	.	.	.	.	.	.	.
8E-\	.	.	8e-\	.	16g/	.	8ee-\	.	.	.	.	.	.	.	.	.	.	.	.	.	.	.	.	.
.	.	.	.	.	16g/	.	.	.	.	.	.	.	.	.	.	.	.	.	.	.	.	.	.	.
8E-\	.	.	8e-\	.	16g/	.	8dd\	.	8E-\	-ri-	8c\	-ri-	8cc\	-ri-	8ee-\	-ri-	.	.	.	.	4cc\	.	4ee-\	.
.	.	.	.	.	16g/	.	.	.	.	.	.	.	.	.	.	.	.	.	.	.	.	.	.	.
8E-\J	.	.	8e-\J	.	16g/	.	8cc\J	.	8E-\	-a	8c\	-a	8cc\	-a	8ee-\	-a	.	.	.	.	.	.	.	.
*	*	*	*	*	*	*	*	*	*	*Xij	*	*Xij	*	*Xij	*	*Xij	*	*	*	*	*	*	*	*
.	.	.	.	.	16g/JJ	.	.	.	.	.	.	.	.	.	.	.	.	.	.	.	.	.	.	.
*	*	*	*Xtremolo	*	*	*	*	*	*	*	*	*	*	*	*	*	*	*	*	*	*	*	*	*
*Xtremolo	*	*	*	*	*	*	*	*	*	*	*	*	*	*	*	*	*	*	*	*	*	*	*	*
!	!	!	!	!	!	!	!	!	!	!	!	!	!	!	!	!	!LO:LB:g=original	!	!	!	!	!	!	!
=30	=30	=30	=30	=30	=30	=30	=30	=30	=30	=30	=30	=30	=30	=30	=30	=30	=30	=30	=30	=30	=30	=30	=30	=30
*	*	*	*	*	*	*	*	*	*2\right	*	*2\right	*	*	*	*	*	*	*	*	*	*	*	*	*
!LO:TX:t=P:problem=mixed beam	!	!	!	!	!	!	!	!	!	!	!	!	!	!	!	!	!	!	!	!	!	!	!	!
8F\L	6 4	.	8f\L	.	16d/LL	.	4b-\	.	2F\	tu-	2f\	tu-	4b-\	tu-	4dd\	tu-	2f\	.	2f\	.	4b-\	.	4dd\	.
.	.	.	.	.	16d/	.	.	.	.	.	.	.	.	.	.	.	.	.	.	.	.	.	.	.
!	!	!	!LO:TX:t=P:problem=mixed beam	!	!	!	!	!	!	!	!	!	!	!	!	!	!	!	!	!	!	!	!	!
8F\	.	.	8f\	.	16d/	.	.	.	.	.	.	.	.	.	.	.	.	.	.	.	.	.	.	.
.	.	.	.	.	16d/JJ	.	.	.	.	.	.	.	.	.	.	.	.	.	.	.	.	.	.	.
8FF/	5 n	.	8F/	.	16e-/LL	.	4ccT\	.	.	.	.	.	4an\	.	4cc\	.	.	.	.	.	4a\	.	4cc\	.
.	.	.	.	.	16e-/	.	.	.	.	.	.	.	.	.	.	.	.	.	.	.	.	.	.	.
8FF/J	.	.	8F/J	.	16e-/	.	.	.	.	.	.	.	.	.	.	.	.	.	.	.	.	.	.	.
.	.	.	.	.	16e-/JJ	.	.	.	.	.	.	.	.	.	.	.	.	.	.	.	.	.	.	.
*	*	*	*	*	*Xtremolo	*	*	*	*	*	*	*	*	*	*	*	*	*	*	*	*	*	*	*
=31	=31	=31	=31	=31	=31	=31	=31	=31	=31	=31	=31	=31	=31	=31	=31	=31	=31	=31	=31	=31	=31	=31	=31	=31
!LO:TX:t=P:problem=mixed beam	!	!	!	!	!	!	!	!	!	!	!	!	!	!	!	!	!	!	!	!	!	!	!	!
8BB-|</L	.	.	8d\L	.	4d/	.	4b-\	.	4BB-/	-a	4d\	-a	4f\	-a	4b-\	-a,	4.B-/	.	4f\	.	4b-\	.	4dd\	.
8A-X|>\	.	.	8f\	.	.	.	.	.	.	.	.	.	.	.	.	.	.	.	.	.	.	.	.	.
8G|>\	.	.	8e-\	.	4r	.	8r	.	4r	.	4r	.	4r	.	4r	.	.	.	4r	.	4r	.	4r	.
8F|>\J	.	.	8d\J	.	.	.	8b-\	.	.	.	.	.	.	.	.	.	8r	.	.	.	.	.	.	.
=32	=32	=32	=32	=32	=32	=32	=32	=32	=32	=32	=32	=32	=32	=32	=32	=32	=32	=32	=32	=32	=32	=32	=32	=32
*	*	*	*	*	*	*	*	*	*	*	*	*	*	*	*	*	*clefF4	*	*	*	*	*	*	*
*	*	*	*	*	*	*	*	*	*	*	*	*	*	*	*	*	*ITrd-2c-3	*	*	*	*	*	*	*
!	!	!	!	!LO:DY:b:rj	!	!LO:DY:b	!	!LO:DY:b:rj	!LO:TX:a:t=4	!	!	!	!	!	!	!	!	!LO:DY:B:rj	!	!LO:DY:b	!	!	!LO:TX:a:t=4	!
4E-\	.	.	2E-/	p	4g/	f	4G/ 4e- 4ee-	f	0r	.	0r	.	4g\	O-	4ee-\	O-	2EE-/	p	4e-\	p	0r	.	0r	.
!	!	!	!	!	!	!	!	!LO:DY:b:t=p.	!	!	!	!	!	!	!	!	!	!	!	!	!	!	!	!
4EE-/	.	.	.	.	8g/L	.	8ee-|\L	p	.	.	.	.	8g\	-san-	8ee-\	-san-	.	.	4r	.	.	.	.	.
!	!	!	!	!	!	!LO:DY:b	!	!	!	!	!	!	!	!	!	!	!	!	!	!	!	!	!	!
.	.	.	.	.	8g/J	p	8ee-|\J	.	.	.	.	.	8g\	-na	8ee-\	-na	.	.	.	.	.	.	.	.
!	!	!	!	!	!	!	!	!	!	!	!	!	!	!	!LO:LB:g=original	!	!	!	!	!	!	!	!	!
=33	=33	=33	=33	=33	=33	=33	=33	=33	=	=33	=33	=33	=33	=33	=33	=33	=33	=33	=33	=33	=33	=33	=33	=33
2r	.	.	2E-/	.	(8g/L	.	(8ee-\L	.	.	.	.	.	8g\	in	8ee-\	in	2EE-/	.	2r	.	.	.	.	.
.	.	.	.	.	8b-/)	.	8dd\)	.	.	.	.	.	8b-\	ex-	8dd\	ex-	.	.	.	.	.	.	.	.
.	.	.	.	.	(8a-/	.	(8cc\	.	.	.	.	.	8a-\	-cel-	8cc\	-cel-	.	.	.	.	.	.	.	.
.	.	.	.	.	8g/J)	.	8b-\J)	.	.	.	.	.	8g\	-siſ	8b-\	-siſ	.	.	.	.	.	.	.	.
!LO:LB:g=original	!	!	!	!	!LO:LB:g=original	!	!	!	!	!	!	!	!LO:LB:g=original	!	!	!	!	!	!	!	!	!	!	!
=34	=34	=34	=34	=34	=34	=34	=34	=34	=34	=34	=34	=34	=34	=34	=34	=34	=34	=34	=34	=34	=34	=34	=34	=34
*	*	*	*	*	*	*	*	*	*	*	*	*	*	*ij	*	*ij	*	*	*	*	*	*	*	*
!	!	!	!	!	!	!LO:DY:b	!	!LO:DY:b:rj	!	!	!	!	!	!	!	!	!	!	!	!	!	!	!	!
4E-\	6 4	.	2E-/	.	4a-/	f	4A-/ 4e- 4cc	f	.	.	.	.	4a-\	O-	4cc\	O-	2EE-/	.	4e-\	.	.	.	.	.
!	!	!	!	!	!	!	!	!LO:DY:b	!	!	!	!	!	!	!	!	!	!	!	!	!	!	!	!
4EE-/	.	.	.	.	8a-/L	.	(8cc|\L	p	.	.	.	.	8a-\	-san-	8cc\	-san-	.	.	4r	.	.	.	.	.
!	!	!	!	!	!	!LO:DY:b	!	!	!	!	!	!	!	!	!	!	!	!	!	!	!	!	!	!
.	.	.	.	.	8a-/J	p	8cc|\J)	.	.	.	.	.	8a-\	-na	8cc\	-na	.	.	.	.	.	.	.	.
=35	=35	=35	=35	=35	=35	=35	=35	=35	=35	=35	=35	=35	=35	=35	=35	=35	=35	=35	=35	=35	=35	=35	=35	=35
2r	.	.	2E-/	.	8a-/L	.	(8cc\L	.	.	.	.	.	8a-\	in	8cc\	in	2EE-/	.	2r	.	.	.	.	.
.	.	.	.	.	8g/	.	8b-\)	.	.	.	.	.	8g\	ex-	8b-\	ex-	.	.	.	.	.	.	.	.
.	.	.	.	.	8f/	.	(8a-\	.	.	.	.	.	8f\	-cel-	8a-\	-cel-	.	.	.	.	.	.	.	.
.	.	.	.	.	8e-/J	.	8g\J)	.	.	.	.	.	8e-\	-siſ	8g\	-siſ	.	.	.	.	.	.	.	.
*	*	*	*	*	*	*	*	*	*	*	*	*	*	*Xij	*	*Xij	*	*	*	*	*	*	*	*
!	!	!	!LO:LB:g=original	!	!	!	!	!	!LO:LB:g=original	!	!	!	!	!	!	!	!	!	!	!	!	!	!	!
=36	=36	=36	=36	=36	=36	=36	=36	=36	=36	=36	=36	=36	=36	=36	=36	=36	=36	=36	=36	=36	=36	=36	=36	=36
*	*	*	*	*	*	*	*	*	*	*	*	*	*	*	*	*	*clefG2	*	*	*	*	*	*	*
*	*	*	*	*	*	*	*	*	*	*	*	*	*	*	*	*	*ITrd5c9	*	*	*	*	*	*	*
!	!	!	!	!	!	!	!	!LO:DY:b:t=f.	!	!	!	!	!	!	!	!	!	!	!	!LO:DY:b	!	!	!	!
8BB-\L	7_	.	8B-\L	.	4d/	.	4d\ 4b- 4aa-	f	8BB-/L	O-	4d\	O-	4f\	O-	4aa-\	O-	4B-/	.	4f\	f	4ff\	.	4aa-\	.
8F\	.	.	8f\	.	.	.	.	.	8F/J	.	.	.	.	.	.	.	.	.	.	.	.	.	.	.
!	!	!	!	!	!	!	!	!	!	!	!	!	!	!	!	!	!	!LO:DY:b:rj	!	!	!	!	!	!
8D\	.	.	8d\	.	8dd\L 8ff	.	8aa-|\L	.	8D/	-san-	8d\	-san-	8f\	-san-	8aa-\	-san-	4B-/	f	4f\	.	8ff\L	.	8aa-\L	.
8BB-\J	x	.	8B-\J	.	8dd\J 8ff	.	8aa-|\J	.	8BB-/	-na	8d\	-na	8f\	-na	8aa-\	-na	.	.	.	.	8ff\J	.	8aa-\J	.
=37	=37	=37	=37	=37	=37	=37	=37	=37	=37	=37	=37	=37	=37	=37	=37	=37	=37	=37	=37	=37	=37	=37	=37	=37
8E-\L	8_ 3_	.	8e-\L	.	4g\ 4ee-	.	4b-\ 4gg	.	8E-\L	in	4e-\	in	4b-\	in	4gg\	in	4G/	.	4e-\	.	4ee-\	.	4gg\	.
8B-\	.	.	8b-\	.	.	.	.	.	8B-\J	.	.	.	.	.	.	.	.	.	.	.	.	.	.	.
8G\	x x	.	8g\	.	4g\ 4ee-	.	4b-\ 4gg	.	8G\L	ex-	4e-\	ex-	4b-\	ex-	4gg\	ex-	4G/	.	4e-\	.	4ee-\	.	4gg\	.
8E-\J	.	.	8e-\J	.	.	.	.	.	8E-\J	.	.	.	.	.	.	.	.	.	.	.	.	.	.	.
=38	=38	=38	=38	=38	=38	=38	=38	=38	=38	=38	=38	=38	=38	=38	=38	=38	=38	=38	=38	=38	=38	=38	=38	=38
*	*	*	*	*	*	*	*	*	*	*	*	*	*2\right	*	*2\right	*	*	*	*	*	*	*	*	*
4BB-/	.	.	2f\	.	8dd\	.	8ff\	.	2BB-/	-cel-	2f\	-cel-	2a-\	-cel-	2dd\	-cel-	4B-/	.	8f\	.	2b-\	.	2dd\	.
!	!	!	!	!	!	!	!	!	!	!	!	!	!	!	!	!	!	!	!	!LO:DY:b	!	!	!	!
.	.	.	.	.	8r	.	8r	.	.	.	.	.	.	.	.	.	.	.	8r	p	.	.	.	.
4BB-/	.	.	.	.	8a-/	.	8dd\	.	.	.	.	.	.	.	.	.	4BB-/	.	4r	.	.	.	.	.
.	.	.	.	.	8r	.	8r	.	.	.	.	.	.	.	.	.	.	.	.	.	.	.	.	.
=39	=39	=39	=39-	=39	=39	=39	=39	=39	=39	=39	=39	=39	=39	=39	=39	=39	=39	=39	=39	=39	=39	=39	=39	=39
!	!	!	!LO:TX:t=P:problem=kasownik poprawiony na bemol	!	!	!	!	!	!	!	!	!	!	!	!	!	!	!	!	!	!	!	!	!
!	!	!	!LO:SIC:v:s=4B-/	!	!	!	!	!	!	!	!	!	!	!	!	!	!	!	!	!	!	!	!	!
4E-\	.	.	4Bn/	.	4g/	.	4ee-\	.	4E-\	-siſ	4g\	-siſ	4b-\	-siſ	4ee-\	-siſ.	4G/	.	4e-\	.	4b-\	.	4ee-\	.
!	!	!	!	!	!	!	!	!	!LO:TX:b:i:t=Benedictus Tacet	!	!LO:TX:b:i:t=Benedictus Tacet	!	!LO:TX:b:i:t=Verte Bene	!	!	!	!	!	!LO:TX:b:i:t=Benedictus Tacet	!	!	!	!	!
4r	.	.	4r	.	4r	.	4r	.	4r	.	4r	.	4r	.	4r	.	4r	.	4r	.	4r	.	4r	.
==	==	==	==	==	==	==	==	==	==	==	==	==	==	==	==	==	==	==	==	==	==	==	==	==
*-	*-	*-	*-	*-	*-	*-	*-	*-	*-	*-	*-	*-	*-	*-	*-	*-	*-	*-	*-	*-	*-	*-	*-	*-
!!!system-decoration: [(s1,s2)][(s3,s4)][(s5,s6,s7,s8)][(s9,s10,s11)][(s12)]
!!!RDF**kern: < = below
!!!RDF**kern: > = above
!!!RDF**kern: | = vertical stroke
!!!ENC: Marta Chmielewska
!!!END: 2020-07-23
!!!ENC: Marta Chmielewska
!!!END: 2022-02-04
